; generated by Slic3r 1.37.2.1-prusa3d-linux64 on 2018-08-21 at 21:51:14

; 

; external perimeters extrusion width = 0.42mm
; perimeters extrusion width = 0.45mm
; infill extrusion width = 0.45mm
; solid infill extrusion width = 0.45mm
; top infill extrusion width = 0.42mm
; first layer extrusion width = 0.42mm

M107 ; disable fan
M115 U3.1.0 ; tell printer latest fw version
M83  ; extruder relative mode
M104 S215 ; set extruder temp
M140 S55 ; set bed temp
M190 S55 ; wait for bed temp
M109 S215 ; wait for extruder temp
G28 W ; home all without mesh bed level
G80 ; mesh bed leveling
G1 Y-3.0 F1000.0 ; go outside pritn area
G1 X60.0 E9.0  F1000.0 ; intro line
G1 X100.0 E12.5  F1000.0 ; intro line
G92 E0.0
M900 K30
G21 ; set units to millimeters
G90 ; use absolute coordinates
M83 ; use relative distances for extrusion
;BEFORE_LAYER_CHANGE
;0.2


G1 E-0.80000 F2100.00000 ; retract
G1 Z0.600 F7200.000 ; lift Z
;AFTER_LAYER_CHANGE
;0.2
G1 X1.794 Y20.230 F7200.000 ; move to first skirt point
G1 Z0.200 F7200.000 ; restore layer Z
G1 E0.80000 F2100.00000 ; unretract
M204 S1000 ; adjust acceleration
G1 F1800
G1 X2.495 Y20.123 E0.02225 ; skirt
G1 X247.504 Y20.123 E7.68208 ; skirt
G1 X248.409 Y20.304 E0.02896 ; skirt
G1 X249.175 Y20.813 E0.02884 ; skirt
G1 X249.691 Y21.579 E0.02896 ; skirt
G1 X249.877 Y22.480 E0.02884 ; skirt
G1 X249.877 Y187.515 E5.17457 ; skirt
G1 X249.805 Y188.081 E0.01787 ; skirt
G1 X249.599 Y188.616 E0.01799 ; skirt
G1 X249.273 Y189.084 E0.01787 ; skirt
G1 X248.842 Y189.462 E0.01799 ; skirt
G1 X248.206 Y189.770 E0.02213 ; skirt
G1 X247.505 Y189.877 E0.02225 ; skirt
G1 X2.492 Y189.877 E7.68220 ; skirt
G1 X1.923 Y189.806 E0.01799 ; skirt
G1 X1.387 Y189.601 E0.01799 ; skirt
G1 X0.916 Y189.273 E0.01799 ; skirt
G1 X0.538 Y188.842 E0.01799 ; skirt
G1 X0.230 Y188.206 E0.02213 ; skirt
G1 X0.123 Y187.505 E0.02225 ; skirt
G1 X0.123 Y22.492 E5.17385 ; skirt
G1 X0.194 Y21.923 E0.01799 ; skirt
G1 X0.399 Y21.387 E0.01799 ; skirt
G1 X0.727 Y20.916 E0.01799 ; skirt
G1 X1.158 Y20.538 E0.01799 ; skirt
G1 X1.740 Y20.256 E0.02025 ; skirt
G1 F5760
G1 X2.495 Y20.123 E-0.26571 ; wipe and retract
G1 F5760
G1 X3.922 Y20.123 E-0.49429 ; wipe and retract
G1 E-0.04000 F2100.00000 ; retract
G1 Z0.800 F7200.000 ; lift Z
G1 X52.952 Y63.160 F7200.000 ; move to first perimeter point
G1 Z0.200 F7200.000 ; restore layer Z
G1 E0.80000 F2100.00000 ; unretract
G1 F1800
G1 X197.047 Y63.160 E4.51803 ; perimeter
G1 X197.047 Y146.839 E2.62371 ; perimeter
G1 X52.952 Y146.839 E4.51803 ; perimeter
G1 X52.952 Y63.220 E2.62182 ; perimeter
G1 X53.329 Y63.537 F7200.000 ; move to first perimeter point
G1 F1800
G1 X196.670 Y63.537 E4.49438 ; perimeter
G1 X196.670 Y146.462 E2.60006 ; perimeter
G1 X53.329 Y146.462 E4.49438 ; perimeter
G1 X53.329 Y63.597 E2.59818 ; perimeter
G1 X53.192 Y63.161 F7200.000 ; move inwards before travel
G1 F5760
G1 X55.523 Y63.596 E-0.76000 ; wipe and retract
G1 E-0.04000 F2100.00000 ; retract
G1 Z0.800 F7200.000 ; lift Z
G1 X3.087 Y23.087 F7200.000 ; move to first perimeter point
G1 Z0.200 F7200.000 ; restore layer Z
G1 E0.80000 F2100.00000 ; unretract
G1 F1800
G1 X246.913 Y23.087 E7.64499 ; perimeter
G1 X246.913 Y186.913 E5.13664 ; perimeter
G1 X3.087 Y186.913 E7.64499 ; perimeter
G1 X3.087 Y23.147 E5.13476 ; perimeter
G1 X2.710 Y22.710 F7200.000 ; move to first perimeter point
G1 F1800
G1 X247.290 Y22.710 E7.66863 ; perimeter
G1 X247.290 Y187.290 E5.16029 ; perimeter
G1 X2.710 Y187.290 E7.66863 ; perimeter
G1 X2.710 Y22.770 E5.15841 ; perimeter
G1 X3.102 Y22.788 F7200.000 ; move inwards before travel
G1 F5760
G1 X4.904 Y22.769 E-0.76000 ; wipe and retract
G1 E-0.04000 F2100.00000 ; retract
G1 Z0.800 F7200.000 ; lift Z
G1 X52.838 Y146.533 F7200.000 ; move to first infill point
G1 Z0.200 F7200.000 ; restore layer Z
G1 E0.80000 F2100.00000 ; unretract
G1 F1800
G1 X3.370 Y97.064 E2.19561 ; infill
G1 X3.370 Y96.531 E0.01675 ; infill
G1 X52.669 Y145.830 E2.18808 ; infill
G1 X52.669 Y145.296 E0.01675 ; infill
G1 X3.370 Y95.997 E2.18808 ; infill
G1 X3.370 Y95.463 E0.01675 ; infill
G1 X52.669 Y144.762 E2.18808 ; infill
G1 X52.669 Y144.228 E0.01675 ; infill
G1 X3.370 Y94.929 E2.18808 ; infill
G1 X3.370 Y94.396 E0.01675 ; infill
G1 X52.669 Y143.694 E2.18808 ; infill
G1 X52.669 Y143.161 E0.01675 ; infill
G1 X3.370 Y93.862 E2.18808 ; infill
G1 X3.370 Y93.328 E0.01675 ; infill
G1 X52.669 Y142.627 E2.18808 ; infill
G1 X52.669 Y142.093 E0.01675 ; infill
G1 X3.370 Y92.794 E2.18808 ; infill
G1 X3.370 Y92.260 E0.01675 ; infill
G1 X52.669 Y141.559 E2.18808 ; infill
G1 X52.669 Y141.025 E0.01675 ; infill
G1 X3.370 Y91.727 E2.18808 ; infill
G1 X3.370 Y91.193 E0.01675 ; infill
G1 X52.669 Y140.492 E2.18808 ; infill
G1 X52.669 Y139.958 E0.01675 ; infill
G1 X3.370 Y90.659 E2.18808 ; infill
G1 X3.370 Y90.125 E0.01675 ; infill
G1 X52.669 Y139.424 E2.18808 ; infill
G1 X52.669 Y138.890 E0.01675 ; infill
G1 X3.370 Y89.592 E2.18808 ; infill
G1 X3.370 Y89.058 E0.01675 ; infill
G1 X52.669 Y138.357 E2.18808 ; infill
G1 X52.669 Y137.823 E0.01675 ; infill
G1 X3.370 Y88.524 E2.18808 ; infill
G1 X3.370 Y87.990 E0.01675 ; infill
G1 X52.669 Y137.289 E2.18808 ; infill
G1 X52.669 Y136.755 E0.01675 ; infill
G1 X3.370 Y87.456 E2.18808 ; infill
G1 X3.370 Y86.923 E0.01675 ; infill
G1 X52.669 Y136.221 E2.18808 ; infill
G1 X52.669 Y135.688 E0.01675 ; infill
G1 X3.370 Y86.389 E2.18808 ; infill
G1 X3.370 Y85.855 E0.01675 ; infill
G1 X52.669 Y135.154 E2.18808 ; infill
G1 X52.669 Y134.620 E0.01675 ; infill
G1 X3.370 Y85.321 E2.18808 ; infill
G1 X3.370 Y84.787 E0.01675 ; infill
G1 X52.669 Y134.086 E2.18808 ; infill
G1 X52.669 Y133.553 E0.01675 ; infill
G1 X3.370 Y84.254 E2.18808 ; infill
G1 X3.370 Y83.720 E0.01675 ; infill
G1 X52.669 Y133.019 E2.18808 ; infill
G1 X52.669 Y132.485 E0.01675 ; infill
G1 X3.370 Y83.186 E2.18808 ; infill
G1 X3.370 Y82.652 E0.01675 ; infill
G1 X52.669 Y131.951 E2.18808 ; infill
G1 X52.669 Y131.417 E0.01675 ; infill
G1 X3.370 Y82.119 E2.18808 ; infill
G1 X3.370 Y81.585 E0.01675 ; infill
G1 X52.669 Y130.884 E2.18808 ; infill
G1 X52.669 Y130.350 E0.01675 ; infill
G1 X3.370 Y81.051 E2.18808 ; infill
G1 X3.370 Y80.517 E0.01675 ; infill
G1 X52.669 Y129.816 E2.18808 ; infill
G1 X52.669 Y129.282 E0.01675 ; infill
G1 X3.370 Y79.983 E2.18808 ; infill
G1 X3.370 Y79.450 E0.01675 ; infill
G1 X52.669 Y128.749 E2.18808 ; infill
G1 X52.669 Y128.215 E0.01675 ; infill
G1 X3.370 Y78.916 E2.18808 ; infill
G1 X3.370 Y78.382 E0.01675 ; infill
G1 X52.669 Y127.681 E2.18808 ; infill
G1 X52.669 Y127.147 E0.01675 ; infill
G1 X3.370 Y77.848 E2.18808 ; infill
G1 X3.370 Y77.315 E0.01675 ; infill
G1 X52.669 Y126.613 E2.18808 ; infill
G1 X52.669 Y126.080 E0.01675 ; infill
G1 X3.370 Y76.781 E2.18808 ; infill
G1 X3.370 Y76.247 E0.01675 ; infill
G1 X52.669 Y125.546 E2.18808 ; infill
G1 X52.669 Y125.012 E0.01675 ; infill
G1 X3.370 Y75.713 E2.18808 ; infill
G1 X3.370 Y75.179 E0.01675 ; infill
G1 X52.669 Y124.478 E2.18808 ; infill
G1 X52.669 Y123.945 E0.01675 ; infill
G1 X3.370 Y74.646 E2.18808 ; infill
G1 X3.370 Y74.112 E0.01675 ; infill
G1 X52.669 Y123.411 E2.18808 ; infill
G1 X52.669 Y122.877 E0.01675 ; infill
G1 X3.370 Y73.578 E2.18808 ; infill
G1 X3.370 Y73.044 E0.01675 ; infill
G1 X52.669 Y122.343 E2.18808 ; infill
G1 X52.669 Y121.809 E0.01675 ; infill
G1 X3.370 Y72.511 E2.18808 ; infill
G1 X3.370 Y71.977 E0.01675 ; infill
G1 X52.669 Y121.276 E2.18808 ; infill
G1 X52.669 Y120.742 E0.01675 ; infill
G1 X3.370 Y71.443 E2.18808 ; infill
G1 X3.370 Y70.909 E0.01675 ; infill
G1 X52.669 Y120.208 E2.18808 ; infill
G1 X52.669 Y119.674 E0.01675 ; infill
G1 X3.370 Y70.375 E2.18808 ; infill
G1 X3.370 Y69.842 E0.01675 ; infill
G1 X52.669 Y119.141 E2.18808 ; infill
G1 X52.669 Y118.607 E0.01675 ; infill
G1 X3.370 Y69.308 E2.18808 ; infill
G1 X3.370 Y68.774 E0.01675 ; infill
G1 X52.669 Y118.073 E2.18808 ; infill
G1 X52.669 Y117.539 E0.01675 ; infill
G1 X3.370 Y68.240 E2.18808 ; infill
G1 X3.370 Y67.707 E0.01675 ; infill
G1 X52.669 Y117.005 E2.18808 ; infill
G1 X52.669 Y116.472 E0.01675 ; infill
G1 X3.370 Y67.173 E2.18808 ; infill
G1 X3.370 Y66.639 E0.01675 ; infill
G1 X52.669 Y115.938 E2.18808 ; infill
G1 X52.669 Y115.404 E0.01675 ; infill
G1 X3.370 Y66.105 E2.18808 ; infill
G1 X3.370 Y65.571 E0.01675 ; infill
G1 X52.669 Y114.870 E2.18808 ; infill
G1 X52.669 Y114.337 E0.01675 ; infill
G1 X3.370 Y65.038 E2.18808 ; infill
G1 X3.370 Y64.504 E0.01675 ; infill
G1 X52.669 Y113.803 E2.18808 ; infill
G1 X52.669 Y113.269 E0.01675 ; infill
G1 X3.370 Y63.970 E2.18808 ; infill
G1 X3.370 Y63.436 E0.01675 ; infill
G1 X52.669 Y112.735 E2.18808 ; infill
G1 X52.669 Y112.201 E0.01675 ; infill
G1 X3.370 Y62.903 E2.18808 ; infill
G1 X3.370 Y62.369 E0.01675 ; infill
G1 X52.669 Y111.668 E2.18808 ; infill
G1 X52.669 Y111.134 E0.01675 ; infill
G1 X3.370 Y61.835 E2.18808 ; infill
G1 X3.370 Y61.301 E0.01675 ; infill
G1 X52.669 Y110.600 E2.18808 ; infill
G1 X52.669 Y110.066 E0.01675 ; infill
G1 X3.370 Y60.767 E2.18808 ; infill
G1 X3.370 Y60.234 E0.01675 ; infill
G1 X52.669 Y109.533 E2.18808 ; infill
G1 X52.669 Y108.999 E0.01675 ; infill
G1 X3.370 Y59.700 E2.18808 ; infill
G1 X3.370 Y59.166 E0.01675 ; infill
G1 X52.669 Y108.465 E2.18808 ; infill
G1 X52.669 Y107.931 E0.01675 ; infill
G1 X3.370 Y58.632 E2.18808 ; infill
G1 X3.370 Y58.099 E0.01675 ; infill
G1 X52.669 Y107.397 E2.18808 ; infill
G1 X52.669 Y106.864 E0.01675 ; infill
G1 X3.370 Y57.565 E2.18808 ; infill
G1 X3.370 Y57.031 E0.01675 ; infill
G1 X52.669 Y106.330 E2.18808 ; infill
G1 X52.669 Y105.796 E0.01675 ; infill
G1 X3.370 Y56.497 E2.18808 ; infill
G1 X3.370 Y55.963 E0.01675 ; infill
G1 X52.669 Y105.262 E2.18808 ; infill
G1 X52.669 Y104.728 E0.01675 ; infill
G1 X3.370 Y55.430 E2.18808 ; infill
G1 X3.370 Y54.896 E0.01675 ; infill
G1 X52.669 Y104.195 E2.18808 ; infill
G1 X52.669 Y103.661 E0.01675 ; infill
G1 X3.370 Y54.362 E2.18808 ; infill
G1 X3.370 Y53.828 E0.01675 ; infill
G1 X52.669 Y103.127 E2.18808 ; infill
G1 X52.669 Y102.593 E0.01675 ; infill
G1 X3.370 Y53.295 E2.18808 ; infill
G1 X3.370 Y52.761 E0.01675 ; infill
G1 X52.669 Y102.060 E2.18808 ; infill
G1 X52.669 Y101.526 E0.01675 ; infill
G1 X3.370 Y52.227 E2.18808 ; infill
G1 X3.370 Y51.693 E0.01675 ; infill
G1 X52.669 Y100.992 E2.18808 ; infill
G1 X52.669 Y100.458 E0.01675 ; infill
G1 X3.370 Y51.159 E2.18808 ; infill
G1 X3.370 Y50.626 E0.01675 ; infill
G1 X52.669 Y99.924 E2.18808 ; infill
G1 X52.669 Y99.391 E0.01675 ; infill
G1 X3.370 Y50.092 E2.18808 ; infill
G1 X3.370 Y49.558 E0.01675 ; infill
G1 X52.669 Y98.857 E2.18808 ; infill
G1 X52.669 Y98.323 E0.01675 ; infill
G1 X3.370 Y49.024 E2.18808 ; infill
G1 X3.370 Y48.490 E0.01675 ; infill
G1 X52.669 Y97.789 E2.18808 ; infill
G1 X52.669 Y97.256 E0.01675 ; infill
G1 X3.370 Y47.957 E2.18808 ; infill
G1 X3.370 Y47.423 E0.01675 ; infill
G1 X52.669 Y96.722 E2.18808 ; infill
G1 X52.669 Y96.188 E0.01675 ; infill
G1 X3.370 Y46.889 E2.18808 ; infill
G1 X3.370 Y46.355 E0.01675 ; infill
G1 X52.669 Y95.654 E2.18808 ; infill
G1 X52.669 Y95.120 E0.01675 ; infill
G1 X3.370 Y45.822 E2.18808 ; infill
G1 X3.370 Y45.288 E0.01675 ; infill
G1 X52.669 Y94.587 E2.18808 ; infill
G1 X52.669 Y94.053 E0.01675 ; infill
G1 X3.370 Y44.754 E2.18808 ; infill
G1 X3.370 Y44.220 E0.01675 ; infill
G1 X52.669 Y93.519 E2.18808 ; infill
G1 X52.669 Y92.985 E0.01675 ; infill
G1 X3.370 Y43.686 E2.18808 ; infill
G1 X3.370 Y43.153 E0.01675 ; infill
G1 X52.669 Y92.452 E2.18808 ; infill
G1 X52.669 Y91.918 E0.01675 ; infill
G1 X3.370 Y42.619 E2.18808 ; infill
G1 X3.370 Y42.085 E0.01675 ; infill
G1 X52.669 Y91.384 E2.18808 ; infill
G1 X52.669 Y90.850 E0.01675 ; infill
G1 X3.370 Y41.551 E2.18808 ; infill
G1 X3.370 Y41.018 E0.01675 ; infill
G1 X52.669 Y90.316 E2.18808 ; infill
G1 X52.669 Y89.783 E0.01675 ; infill
G1 X3.370 Y40.484 E2.18808 ; infill
G1 X3.370 Y39.950 E0.01675 ; infill
G1 X52.669 Y89.249 E2.18808 ; infill
G1 X52.669 Y88.715 E0.01675 ; infill
G1 X3.370 Y39.416 E2.18808 ; infill
G1 X3.370 Y38.882 E0.01675 ; infill
G1 X52.669 Y88.181 E2.18808 ; infill
G1 X52.669 Y87.648 E0.01675 ; infill
G1 X3.370 Y38.349 E2.18808 ; infill
G1 X3.370 Y37.815 E0.01675 ; infill
G1 X52.669 Y87.114 E2.18808 ; infill
G1 X52.669 Y86.580 E0.01675 ; infill
G1 X3.370 Y37.281 E2.18808 ; infill
G1 X3.370 Y36.747 E0.01675 ; infill
G1 X52.669 Y86.046 E2.18808 ; infill
G1 X52.669 Y85.512 E0.01675 ; infill
G1 X3.370 Y36.214 E2.18808 ; infill
G1 X3.370 Y35.680 E0.01675 ; infill
G1 X52.669 Y84.979 E2.18808 ; infill
G1 X52.669 Y84.445 E0.01675 ; infill
G1 X3.370 Y35.146 E2.18808 ; infill
G1 X3.370 Y34.612 E0.01675 ; infill
G1 X52.669 Y83.911 E2.18808 ; infill
G1 X52.669 Y83.377 E0.01675 ; infill
G1 X3.370 Y34.078 E2.18808 ; infill
G1 X3.370 Y33.545 E0.01675 ; infill
G1 X52.669 Y82.844 E2.18808 ; infill
G1 X52.669 Y82.310 E0.01675 ; infill
G1 X3.370 Y33.011 E2.18808 ; infill
G1 X3.370 Y32.477 E0.01675 ; infill
G1 X52.669 Y81.776 E2.18808 ; infill
G1 X52.669 Y81.242 E0.01675 ; infill
G1 X3.370 Y31.943 E2.18808 ; infill
G1 X3.370 Y31.410 E0.01675 ; infill
G1 X52.669 Y80.708 E2.18808 ; infill
G1 X52.669 Y80.175 E0.01675 ; infill
G1 X3.370 Y30.876 E2.18808 ; infill
G1 X3.370 Y30.342 E0.01675 ; infill
G1 X52.669 Y79.641 E2.18808 ; infill
G1 X52.669 Y79.107 E0.01675 ; infill
G1 X3.370 Y29.808 E2.18808 ; infill
G1 X3.370 Y29.274 E0.01675 ; infill
G1 X52.669 Y78.573 E2.18808 ; infill
G1 X52.669 Y78.040 E0.01675 ; infill
G1 X3.370 Y28.741 E2.18808 ; infill
G1 X3.370 Y28.207 E0.01675 ; infill
G1 X52.669 Y77.506 E2.18808 ; infill
G1 X52.669 Y76.972 E0.01675 ; infill
G1 X3.370 Y27.673 E2.18808 ; infill
G1 X3.370 Y27.139 E0.01675 ; infill
G1 X52.669 Y76.438 E2.18808 ; infill
G1 X52.669 Y75.904 E0.01675 ; infill
G1 X3.370 Y26.606 E2.18808 ; infill
G1 X3.370 Y26.072 E0.01675 ; infill
G1 X52.669 Y75.371 E2.18808 ; infill
G1 X52.669 Y74.837 E0.01675 ; infill
G1 X3.370 Y25.538 E2.18808 ; infill
G1 X3.370 Y25.004 E0.01675 ; infill
G1 X52.669 Y74.303 E2.18808 ; infill
G1 X52.669 Y73.769 E0.01675 ; infill
G1 X3.370 Y24.470 E2.18808 ; infill
G1 X3.370 Y23.937 E0.01675 ; infill
G1 X52.669 Y73.236 E2.18808 ; infill
G1 X52.669 Y72.702 E0.01675 ; infill
G1 X3.370 Y23.403 E2.18808 ; infill
G1 X3.370 Y23.370 E0.00104 ; infill
G1 X3.871 Y23.370 E0.01572 ; infill
G1 X52.669 Y72.168 E2.16585 ; infill
G1 X52.669 Y71.634 E0.01675 ; infill
G1 X4.404 Y23.370 E2.14216 ; infill
G1 X4.938 Y23.370 E0.01675 ; infill
G1 X52.669 Y71.100 E2.11847 ; infill
G1 X52.669 Y70.567 E0.01675 ; infill
G1 X5.472 Y23.370 E2.09478 ; infill
G1 X6.006 Y23.370 E0.01675 ; infill
G1 X52.669 Y70.033 E2.07109 ; infill
G1 X52.669 Y69.499 E0.01675 ; infill
G1 X6.540 Y23.370 E2.04739 ; infill
G1 X7.073 Y23.370 E0.01675 ; infill
G1 X52.669 Y68.965 E2.02370 ; infill
G1 X52.669 Y68.431 E0.01675 ; infill
G1 X7.607 Y23.370 E2.00001 ; infill
G1 X8.141 Y23.370 E0.01675 ; infill
G1 X52.669 Y67.898 E1.97632 ; infill
G1 X52.669 Y67.364 E0.01675 ; infill
G1 X8.675 Y23.370 E1.95263 ; infill
G1 X9.208 Y23.370 E0.01675 ; infill
G1 X52.669 Y66.830 E1.92894 ; infill
G1 X52.669 Y66.296 E0.01675 ; infill
G1 X9.742 Y23.370 E1.90525 ; infill
G1 X10.276 Y23.370 E0.01675 ; infill
G1 X52.669 Y65.763 E1.88156 ; infill
G1 X52.669 Y65.229 E0.01675 ; infill
G1 X10.810 Y23.370 E1.85786 ; infill
G1 X11.344 Y23.370 E0.01675 ; infill
G1 X52.669 Y64.695 E1.83417 ; infill
G1 X52.669 Y64.161 E0.01675 ; infill
G1 X11.877 Y23.370 E1.81048 ; infill
G1 X12.411 Y23.370 E0.01675 ; infill
G1 X52.669 Y63.627 E1.78679 ; infill
G1 X52.669 Y63.094 E0.01675 ; infill
G1 X12.945 Y23.370 E1.76310 ; infill
G1 X13.479 Y23.370 E0.01675 ; infill
G1 X52.986 Y62.877 E1.75348 ; infill
G1 X53.520 Y62.877 E0.01675 ; infill
G1 X14.012 Y23.370 E1.75348 ; infill
G1 X14.546 Y23.370 E0.01675 ; infill
G1 X54.053 Y62.877 E1.75348 ; infill
G1 X54.587 Y62.877 E0.01675 ; infill
G1 X15.080 Y23.370 E1.75348 ; infill
G1 X15.614 Y23.370 E0.01675 ; infill
G1 X55.121 Y62.877 E1.75348 ; infill
G1 X55.655 Y62.877 E0.01675 ; infill
G1 X16.148 Y23.370 E1.75348 ; infill
G1 X16.681 Y23.370 E0.01675 ; infill
G1 X56.189 Y62.877 E1.75348 ; infill
G1 X56.722 Y62.877 E0.01675 ; infill
G1 X17.215 Y23.370 E1.75348 ; infill
G1 X17.749 Y23.370 E0.01675 ; infill
