; generated by Slic3r 1.37.2.1-prusa3d-linux64 on 2018-08-25 at 16:27:50

; 

; external perimeters extrusion width = 0.42mm
; perimeters extrusion width = 0.45mm
; infill extrusion width = 0.45mm
; solid infill extrusion width = 0.45mm
; top infill extrusion width = 0.42mm
; support material extrusion width = 0.35mm
; first layer extrusion width = 0.42mm

M107 ; disable fan
M115 U3.1.0 ; tell printer latest fw version
M83  ; extruder relative mode
M104 S215 ; set extruder temp
M140 S55 ; set bed temp
M190 S55 ; wait for bed temp
M109 S215 ; wait for extruder temp
G28 W ; home all without mesh bed level
G80 ; mesh bed leveling
G1 Y-3.0 F1000.0 ; go outside pritn area
G1 X60.0 E9.0  F1000.0 ; intro line
G1 X100.0 E12.5  F1000.0 ; intro line
G92 E0.0
M900 K30
G21 ; set units to millimeters
G90 ; use absolute coordinates
M83 ; use relative distances for extrusion
;BEFORE_LAYER_CHANGE
;0.2


G1 E-0.80000 F2100.00000 ; retract
G1 Z0.600 F7200.000 ; lift Z
;AFTER_LAYER_CHANGE
;0.2
G1 X91.823 Y110.192 F7200.000 ; move to first skirt point
G1 Z0.200 F7200.000 ; restore layer Z
G1 E0.80000 F2100.00000 ; unretract
M204 S1000 ; adjust acceleration
G1 F1800
G1 X93.474 Y109.253 E0.05955 ; skirt
G1 X95.276 Y108.628 E0.05980 ; skirt
G1 X97.154 Y108.344 E0.05955 ; skirt
G1 X146.037 Y108.156 E1.53271 ; skirt
G1 X149.840 Y108.357 E0.11939 ; skirt
G1 X151.225 Y108.558 E0.04388 ; skirt
G1 X153.052 Y109.132 E0.06005 ; skirt
G1 X154.736 Y110.028 E0.05980 ; skirt
G1 X155.578 Y110.642 E0.03267 ; skirt
G1 X156.359 Y111.344 E0.03292 ; skirt
G1 X157.065 Y112.121 E0.03292 ; skirt
G1 X157.685 Y112.959 E0.03267 ; skirt
G1 X158.218 Y113.855 E0.03267 ; skirt
G1 X158.661 Y114.807 E0.03292 ; skirt
G1 X159.005 Y115.799 E0.03292 ; skirt
G1 X159.248 Y116.820 E0.03292 ; skirt
G1 X159.420 Y118.664 E0.05806 ; skirt
G1 X159.402 Y157.714 E1.22439 ; skirt
G1 X159.126 Y159.554 E0.05831 ; skirt
G1 X158.523 Y161.321 E0.05856 ; skirt
G1 X157.618 Y162.946 E0.05831 ; skirt
G1 X156.431 Y164.388 E0.05856 ; skirt
G1 X155.682 Y165.077 E0.03193 ; skirt
G1 X154.862 Y165.694 E0.03218 ; skirt
G1 X153.984 Y166.227 E0.03218 ; skirt
G1 X153.059 Y166.670 E0.03218 ; skirt
G1 X152.094 Y167.020 E0.03218 ; skirt
G1 X151.100 Y167.273 E0.03218 ; skirt
G1 X150.085 Y167.426 E0.03218 ; skirt
G1 X149.060 Y167.479 E0.03218 ; skirt
G1 X97.235 Y167.466 E1.62494 ; skirt
G1 X95.370 Y167.200 E0.05906 ; skirt
G1 X93.584 Y166.602 E0.05906 ; skirt
G1 X91.929 Y165.686 E0.05931 ; skirt
G1 X90.474 Y164.491 E0.05906 ; skirt
G1 X89.785 Y163.741 E0.03193 ; skirt
G1 X89.168 Y162.921 E0.03218 ; skirt
G1 X88.635 Y162.043 E0.03218 ; skirt
G1 X88.192 Y161.118 E0.03218 ; skirt
G1 X87.842 Y160.153 E0.03218 ; skirt
G1 X87.589 Y159.159 E0.03218 ; skirt
G1 X87.435 Y158.144 E0.03218 ; skirt
G1 X87.383 Y157.119 E0.03218 ; skirt
G1 X87.405 Y118.027 E1.22570 ; skirt
G1 X87.688 Y116.205 E0.05781 ; skirt
G1 X88.292 Y114.455 E0.05806 ; skirt
G1 X89.194 Y112.846 E0.05781 ; skirt
G1 X90.371 Y111.417 E0.05806 ; skirt
G1 X91.777 Y110.231 E0.05767 ; skirt
G1 F5760
G1 X93.474 Y109.253 E-0.67831 ; wipe and retract
G1 F5760
G1 X93.697 Y109.175 E-0.08169 ; wipe and retract
G1 E-0.04000 F2100.00000 ; retract
G1 Z0.800 F7200.000 ; lift Z
G1 X89.261 Y137.927 F7200.000 ; move to first brim point
G1 Z0.200 F7200.000 ; restore layer Z
G1 E0.80000 F2100.00000 ; unretract
G1 F1800
G1 X89.087 Y137.087 E0.02688 ; brim
G1 X89.087 Y117.941 E0.60031 ; brim
G1 X89.948 Y114.896 E0.09921 ; brim
G1 X91.541 Y112.645 E0.08649 ; brim
G1 X93.252 Y111.269 E0.06885 ; brim
G1 X95.153 Y110.411 E0.06540 ; brim
G1 X97.155 Y110.034 E0.06388 ; brim
G1 X145.728 Y110.031 E1.52295 ; brim
G1 X145.957 Y110.048 E0.00721 ; brim
G1 X146.428 Y110.030 E0.01477 ; brim
G1 X149.629 Y110.034 E0.10036 ; brim
G1 X151.497 Y110.364 E0.05947 ; brim
G1 X153.231 Y111.065 E0.05865 ; brim
G1 X155.787 Y113.236 E0.10515 ; brim
G1 X157.111 Y115.468 E0.08137 ; brim
G1 X157.711 Y118.060 E0.08342 ; brim
G1 X157.716 Y137.084 E0.59650 ; brim
G1 X157.546 Y137.915 E0.02659 ; brim
G1 X157.716 Y138.901 E0.03135 ; brim
G1 X157.716 Y157.827 E0.59340 ; brim
G1 X157.273 Y159.887 E0.06606 ; brim
G1 X156.509 Y161.547 E0.05733 ; brim
G1 X154.602 Y163.695 E0.09004 ; brim
G1 X152.871 Y164.798 E0.06436 ; brim
G1 X151.202 Y165.395 E0.05559 ; brim
G1 X148.718 Y165.605 E0.07817 ; brim
G1 X98.829 Y165.605 E1.56421 ; brim
G1 X98.488 Y165.578 E0.01074 ; brim
G1 X97.027 Y165.589 E0.04582 ; brim
G1 X94.996 Y165.222 E0.06471 ; brim
G1 X93.099 Y164.356 E0.06539 ; brim
G1 X90.910 Y162.390 E0.09226 ; brim
G1 X89.671 Y160.280 E0.07670 ; brim
G1 X89.087 Y157.833 E0.07888 ; brim
G1 X89.087 Y138.768 E0.59777 ; brim
G1 X89.248 Y137.986 E0.02506 ; brim
G1 X89.646 Y137.927 F7200.000 ; move to first brim point
G1 F1800
G1 X89.464 Y137.067 E0.02755 ; brim
G1 X89.464 Y117.968 E0.59884 ; brim
G1 X90.301 Y115.031 E0.09575 ; brim
G1 X91.798 Y112.921 E0.08110 ; brim
G1 X93.430 Y111.602 E0.06581 ; brim
G1 X95.246 Y110.777 E0.06254 ; brim
G1 X97.173 Y110.411 E0.06151 ; brim
G1 X145.720 Y110.408 E1.52216 ; brim
G1 X145.950 Y110.426 E0.00722 ; brim
G1 X146.431 Y110.407 E0.01510 ; brim
G1 X149.612 Y110.411 E0.09973 ; brim
G1 X151.374 Y110.721 E0.05609 ; brim
G1 X153.061 Y111.403 E0.05707 ; brim
G1 X155.518 Y113.502 E0.10131 ; brim
G1 X156.771 Y115.634 E0.07754 ; brim
G1 X157.334 Y118.081 E0.07875 ; brim
G1 X157.339 Y137.065 E0.59521 ; brim
G1 X157.162 Y137.909 E0.02705 ; brim
G1 X157.339 Y138.918 E0.03210 ; brim
G1 X157.339 Y157.806 E0.59224 ; brim
G1 X156.909 Y159.786 E0.06351 ; brim
G1 X156.178 Y161.363 E0.05450 ; brim
G1 X154.339 Y163.424 E0.08662 ; brim
G1 X152.688 Y164.467 E0.06124 ; brim
G1 X151.099 Y165.032 E0.05286 ; brim
G1 X148.710 Y165.228 E0.07516 ; brim
G1 X98.837 Y165.228 E1.56373 ; brim
G1 X98.502 Y165.200 E0.01054 ; brim
G1 X97.042 Y165.212 E0.04579 ; brim
G1 X95.087 Y164.856 E0.06230 ; brim
G1 X93.283 Y164.026 E0.06227 ; brim
G1 X91.185 Y162.130 E0.08867 ; brim
G1 X90.011 Y160.115 E0.07312 ; brim
G1 X89.464 Y157.811 E0.07423 ; brim
G1 X89.464 Y138.788 E0.59645 ; brim
G1 X89.634 Y137.985 E0.02573 ; brim
G1 X90.032 Y137.927 F7200.000 ; move to first brim point
G1 F1800
G1 X89.841 Y137.046 E0.02824 ; brim
G1 X89.841 Y117.994 E0.59736 ; brim
G1 X90.655 Y115.166 E0.09227 ; brim
G1 X92.056 Y113.198 E0.07576 ; brim
G1 X93.609 Y111.934 E0.06278 ; brim
G1 X95.340 Y111.143 E0.05966 ; brim
G1 X97.191 Y110.788 E0.05912 ; brim
G1 X145.713 Y110.786 E1.52135 ; brim
G1 X145.942 Y110.804 E0.00722 ; brim
G1 X146.435 Y110.784 E0.01546 ; brim
G1 X149.595 Y110.788 E0.09909 ; brim
G1 X151.288 Y111.089 E0.05391 ; brim
G1 X152.890 Y111.741 E0.05424 ; brim
G1 X155.248 Y113.766 E0.09747 ; brim
G1 X156.430 Y115.798 E0.07370 ; brim
G1 X156.957 Y118.102 E0.07411 ; brim
G1 X156.962 Y137.044 E0.59391 ; brim
G1 X156.778 Y137.902 E0.02751 ; brim
G1 X156.962 Y138.934 E0.03288 ; brim
G1 X156.962 Y157.786 E0.59107 ; brim
G1 X156.546 Y159.684 E0.06095 ; brim
G1 X155.849 Y161.178 E0.05167 ; brim
G1 X154.076 Y163.152 E0.08318 ; brim
G1 X152.506 Y164.137 E0.05812 ; brim
G1 X150.997 Y164.668 E0.05014 ; brim
G1 X148.703 Y164.851 E0.07217 ; brim
G1 X98.845 Y164.851 E1.56324 ; brim
G1 X98.517 Y164.823 E0.01034 ; brim
G1 X97.057 Y164.834 E0.04578 ; brim
G1 X95.179 Y164.489 E0.05987 ; brim
G1 X93.468 Y163.696 E0.05914 ; brim
G1 X91.460 Y161.871 E0.08507 ; brim
G1 X90.352 Y159.950 E0.06953 ; brim
G1 X89.841 Y157.789 E0.06962 ; brim
G1 X89.841 Y138.809 E0.59512 ; brim
G1 X90.020 Y137.985 E0.02642 ; brim
G1 X90.419 Y137.926 F7200.000 ; move to first brim point
G1 F1800
G1 X90.218 Y137.025 E0.02895 ; brim
G1 X90.218 Y118.021 E0.59585 ; brim
G1 X91.008 Y115.302 E0.08877 ; brim
G1 X92.314 Y113.474 E0.07046 ; brim
G1 X93.789 Y112.267 E0.05977 ; brim
G1 X95.434 Y111.509 E0.05678 ; brim
G1 X97.210 Y111.165 E0.05671 ; brim
G1 X145.705 Y111.163 E1.52053 ; brim
G1 X145.934 Y111.181 E0.00721 ; brim
G1 X146.438 Y111.162 E0.01582 ; brim
G1 X149.578 Y111.165 E0.09844 ; brim
G1 X151.201 Y111.456 E0.05171 ; brim
G1 X152.719 Y112.078 E0.05141 ; brim
G1 X154.977 Y114.031 E0.09363 ; brim
G1 X156.069 Y115.911 E0.06816 ; brim
G1 X156.580 Y118.124 E0.07122 ; brim
G1 X156.585 Y137.023 E0.59258 ; brim
G1 X156.393 Y137.895 E0.02797 ; brim
G1 X156.584 Y138.952 E0.03368 ; brim
G1 X156.584 Y157.765 E0.58988 ; brim
G1 X156.182 Y159.582 E0.05836 ; brim
G1 X155.520 Y160.992 E0.04884 ; brim
G1 X153.815 Y162.879 E0.07975 ; brim
G1 X152.325 Y163.805 E0.05500 ; brim
G1 X150.897 Y164.304 E0.04743 ; brim
G1 X148.696 Y164.474 E0.06921 ; brim
G1 X98.854 Y164.474 E1.56276 ; brim
G1 X98.532 Y164.446 E0.01013 ; brim
G1 X97.072 Y164.457 E0.04579 ; brim
G1 X95.316 Y164.137 E0.05596 ; brim
G1 X93.653 Y163.366 E0.05746 ; brim
G1 X91.736 Y161.613 E0.08145 ; brim
G1 X90.712 Y159.836 E0.06430 ; brim
G1 X90.218 Y157.767 E0.06670 ; brim
G1 X90.218 Y138.830 E0.59376 ; brim
G1 X90.406 Y137.985 E0.02714 ; brim
G1 X90.806 Y137.926 F7200.000 ; move to first brim point
G1 F1800
G1 X90.595 Y137.004 E0.02968 ; brim
G1 X90.595 Y118.049 E0.59432 ; brim
G1 X91.360 Y115.439 E0.08525 ; brim
G1 X92.573 Y113.749 E0.06522 ; brim
G1 X93.970 Y112.598 E0.05677 ; brim
G1 X95.529 Y111.874 E0.05389 ; brim
G1 X97.228 Y111.542 E0.05427 ; brim
G1 X145.696 Y111.540 E1.51970 ; brim
G1 X145.925 Y111.559 E0.00720 ; brim
G1 X146.442 Y111.539 E0.01621 ; brim
G1 X149.561 Y111.542 E0.09780 ; brim
G1 X151.077 Y111.813 E0.04828 ; brim
G1 X152.547 Y112.415 E0.04980 ; brim
G1 X154.706 Y114.294 E0.08975 ; brim
G1 X155.728 Y116.074 E0.06435 ; brim
G1 X156.203 Y118.145 E0.06663 ; brim
G1 X156.207 Y137.002 E0.59125 ; brim
G1 X156.008 Y137.887 E0.02844 ; brim
G1 X156.207 Y138.969 E0.03450 ; brim
G1 X156.207 Y157.744 E0.58867 ; brim
G1 X155.819 Y159.479 E0.05574 ; brim
G1 X155.191 Y160.805 E0.04600 ; brim
G1 X153.554 Y162.606 E0.07630 ; brim
G1 X152.145 Y163.473 E0.05187 ; brim
G1 X150.797 Y163.939 E0.04474 ; brim
G1 X148.689 Y164.097 E0.06628 ; brim
G1 X98.862 Y164.097 E1.56228 ; brim
G1 X98.548 Y164.069 E0.00991 ; brim
G1 X97.087 Y164.080 E0.04580 ; brim
G1 X95.408 Y163.771 E0.05352 ; brim
G1 X93.839 Y163.037 E0.05430 ; brim
G1 X92.014 Y161.356 E0.07783 ; brim
G1 X91.053 Y159.673 E0.06075 ; brim
G1 X90.595 Y157.745 E0.06213 ; brim
G1 X90.595 Y138.852 E0.59240 ; brim
G1 X90.792 Y137.985 E0.02787 ; brim
G1 X91.193 Y137.926 F7200.000 ; move to first brim point
G1 F1800
G1 X90.972 Y136.981 E0.03042 ; brim
G1 X90.972 Y118.076 E0.59277 ; brim
G1 X91.713 Y115.577 E0.08171 ; brim
G1 X92.832 Y114.024 E0.06003 ; brim
G1 X94.152 Y112.930 E0.05375 ; brim
G1 X95.667 Y112.226 E0.05239 ; brim
G1 X97.246 Y111.919 E0.05043 ; brim
G1 X145.688 Y111.917 E1.51886 ; brim
G1 X145.916 Y111.937 E0.00718 ; brim
G1 X146.445 Y111.916 E0.01661 ; brim
G1 X149.544 Y111.919 E0.09715 ; brim
G1 X150.990 Y112.180 E0.04608 ; brim
G1 X152.374 Y112.751 E0.04695 ; brim
G1 X154.433 Y114.556 E0.08585 ; brim
G1 X155.387 Y116.235 E0.06055 ; brim
G1 X155.826 Y118.166 E0.06209 ; brim
G1 X155.830 Y136.980 E0.58990 ; brim
G1 X155.623 Y137.879 E0.02891 ; brim
G1 X155.830 Y138.987 E0.03535 ; brim
G1 X155.830 Y157.723 E0.58745 ; brim
G1 X155.456 Y159.374 E0.05310 ; brim
G1 X154.863 Y160.617 E0.04316 ; brim
G1 X153.295 Y162.331 E0.07285 ; brim
G1 X151.967 Y163.140 E0.04874 ; brim
G1 X150.698 Y163.574 E0.04206 ; brim
G1 X148.682 Y163.720 E0.06337 ; brim
G1 X98.871 Y163.720 E1.56180 ; brim
G1 X98.564 Y163.691 E0.00969 ; brim
G1 X97.102 Y163.703 E0.04582 ; brim
G1 X95.502 Y163.404 E0.05105 ; brim
G1 X94.027 Y162.709 E0.05112 ; brim
G1 X92.292 Y161.100 E0.07420 ; brim
G1 X91.395 Y159.511 E0.05720 ; brim
G1 X90.972 Y157.723 E0.05760 ; brim
G1 X90.972 Y138.874 E0.59102 ; brim
G1 X91.180 Y137.985 E0.02862 ; brim
G1 X91.581 Y137.926 F7200.000 ; move to first brim point
G1 F1800
G1 X91.350 Y136.959 E0.03119 ; brim
G1 X91.350 Y118.104 E0.59118 ; brim
G1 X92.065 Y115.716 E0.07814 ; brim
G1 X93.091 Y114.298 E0.05490 ; brim
G1 X94.334 Y113.261 E0.05076 ; brim
G1 X95.763 Y112.591 E0.04947 ; brim
G1 X97.264 Y112.296 E0.04798 ; brim
G1 X145.679 Y112.294 E1.51800 ; brim
G1 X145.906 Y112.315 E0.00715 ; brim
G1 X146.449 Y112.293 E0.01704 ; brim
G1 X149.526 Y112.296 E0.09649 ; brim
G1 X150.902 Y112.547 E0.04385 ; brim
G1 X152.200 Y113.087 E0.04408 ; brim
G1 X154.159 Y114.817 E0.08195 ; brim
G1 X155.044 Y116.395 E0.05673 ; brim
G1 X155.449 Y118.187 E0.05759 ; brim
G1 X155.453 Y136.958 E0.58855 ; brim
G1 X155.238 Y137.870 E0.02938 ; brim
G1 X155.453 Y139.005 E0.03622 ; brim
G1 X155.453 Y157.701 E0.58621 ; brim
G1 X155.093 Y159.269 E0.05044 ; brim
G1 X154.536 Y160.427 E0.04031 ; brim
G1 X153.036 Y162.055 E0.06940 ; brim
G1 X151.791 Y162.806 E0.04559 ; brim
G1 X150.601 Y163.209 E0.03939 ; brim
G1 X148.676 Y163.343 E0.06049 ; brim
G1 X98.880 Y163.343 E1.56131 ; brim
G1 X98.580 Y163.314 E0.00946 ; brim
G1 X97.118 Y163.326 E0.04585 ; brim
G1 X95.596 Y163.039 E0.04856 ; brim
G1 X94.216 Y162.382 E0.04793 ; brim
G1 X92.571 Y160.844 E0.07059 ; brim
G1 X91.755 Y159.398 E0.05206 ; brim
G1 X91.350 Y157.701 E0.05470 ; brim
G1 X91.350 Y138.896 E0.58961 ; brim
G1 X91.567 Y137.984 E0.02939 ; brim
G1 X91.970 Y137.926 F7200.000 ; move to first brim point
G1 F1800
G1 X91.727 Y136.935 E0.03198 ; brim
G1 X91.727 Y118.132 E0.58957 ; brim
G1 X92.416 Y115.857 E0.07454 ; brim
G1 X93.352 Y114.572 E0.04983 ; brim
G1 X94.518 Y113.591 E0.04778 ; brim
G1 X95.860 Y112.956 E0.04653 ; brim
G1 X97.283 Y112.673 E0.04551 ; brim
G1 X145.669 Y112.671 E1.51712 ; brim
G1 X145.895 Y112.693 E0.00711 ; brim
G1 X146.452 Y112.670 E0.01748 ; brim
G1 X149.508 Y112.673 E0.09582 ; brim
G1 X150.813 Y112.914 E0.04159 ; brim
G1 X152.025 Y113.423 E0.04120 ; brim
G1 X153.884 Y115.077 E0.07803 ; brim
G1 X154.701 Y116.554 E0.05292 ; brim
G1 X155.072 Y118.208 E0.05315 ; brim
G1 X155.076 Y136.935 E0.58718 ; brim
G1 X154.852 Y137.860 E0.02986 ; brim
G1 X155.076 Y139.023 E0.03713 ; brim
G1 X155.076 Y157.679 E0.58495 ; brim
G1 X154.731 Y159.162 E0.04775 ; brim
G1 X154.209 Y160.237 E0.03745 ; brim
G1 X152.779 Y161.778 E0.06594 ; brim
G1 X151.616 Y162.472 E0.04245 ; brim
G1 X150.505 Y162.844 E0.03674 ; brim
G1 X148.670 Y162.966 E0.05765 ; brim
G1 X98.890 Y162.966 E1.56083 ; brim
G1 X98.597 Y162.937 E0.00921 ; brim
G1 X97.133 Y162.948 E0.04592 ; brim
G1 X95.736 Y162.687 E0.04456 ; brim
G1 X94.405 Y162.054 E0.04622 ; brim
G1 X92.851 Y160.590 E0.06692 ; brim
G1 X92.097 Y159.238 E0.04855 ; brim
G1 X91.727 Y157.679 E0.05023 ; brim
G1 X91.727 Y138.919 E0.58819 ; brim
G1 X91.955 Y137.984 E0.03019 ; brim
G1 X92.359 Y137.926 F7200.000 ; move to first brim point
G1 F1800
G1 X92.104 Y136.912 E0.03279 ; brim
G1 X92.104 Y118.160 E0.58794 ; brim
G1 X92.767 Y115.998 E0.07091 ; brim
G1 X93.612 Y114.845 E0.04483 ; brim
G1 X94.703 Y113.920 E0.04483 ; brim
G1 X95.957 Y113.321 E0.04359 ; brim
G1 X97.302 Y113.050 E0.04301 ; brim
G1 X145.660 Y113.048 E1.51621 ; brim
G1 X145.884 Y113.070 E0.00706 ; brim
G1 X146.456 Y113.047 E0.01796 ; brim
G1 X149.491 Y113.050 E0.09516 ; brim
G1 X150.686 Y113.270 E0.03809 ; brim
G1 X151.849 Y113.758 E0.03956 ; brim
G1 X153.608 Y115.336 E0.07409 ; brim
G1 X154.339 Y116.663 E0.04751 ; brim
G1 X154.695 Y118.229 E0.05035 ; brim
G1 X154.699 Y136.911 E0.58577 ; brim
G1 X154.465 Y137.850 E0.03034 ; brim
G1 X154.699 Y139.042 E0.03806 ; brim
G1 X154.699 Y157.657 E0.58367 ; brim
G1 X154.369 Y159.055 E0.04502 ; brim
G1 X153.883 Y160.045 E0.03459 ; brim
G1 X152.522 Y161.500 E0.06247 ; brim
G1 X151.442 Y162.136 E0.03929 ; brim
G1 X150.411 Y162.478 E0.03406 ; brim
G1 X148.992 Y162.554 E0.04458 ; brim
G1 X148.657 Y162.588 E0.01055 ; brim
G1 X98.900 Y162.588 E1.56011 ; brim
G1 X98.615 Y162.560 E0.00896 ; brim
G1 X97.149 Y162.571 E0.04598 ; brim
G1 X95.831 Y162.322 E0.04205 ; brim
G1 X94.595 Y161.727 E0.04298 ; brim
G1 X93.133 Y160.338 E0.06326 ; brim
G1 X92.440 Y159.079 E0.04504 ; brim
G1 X92.104 Y157.657 E0.04581 ; brim
G1 X92.104 Y138.943 E0.58676 ; brim
G1 X92.344 Y137.984 E0.03100 ; brim
G1 X92.748 Y137.926 F7200.000 ; move to first brim point
G1 F1800
G1 X92.481 Y136.887 E0.03362 ; brim
G1 X92.481 Y118.188 E0.58630 ; brim
G1 X93.091 Y116.194 E0.06538 ; brim
G1 X93.874 Y115.118 E0.04174 ; brim
G1 X94.928 Y114.223 E0.04335 ; brim
